Dominus_Dark_Funeral/scalable/apps/vkaudiosaver.svg

<?xml version="1.0" encoding="UTF-8" standalone="no"?><svg xmlns:dc="http://purl.org/dc/elements/1.1/" xmlns:cc="http://creativecommons.org/ns#" xmlns:rdf="http://www.w3.org/1999/02/22-rdf-syntax-ns#" xmlns="http://www.w3.org/2000/svg" xmlns:xlink="http://www.w3.org/1999/xlink" width="48" height="48" viewBox="0 0 12.7 12.7"><metadata><rdf:RDF><cc:Work><dc:format>image/svg+xml</dc:format><dc:type rdf:resource="http://purl.org/dc/dcmitype/StillImage"/><dc:title/></cc:Work></rdf:RDF></metadata><defs><linearGradient id="d"><stop offset="0" stop-color="#80b3ff"/><stop offset="1" stop-color="#507299"/></linearGradient><linearGradient id="c"><stop offset="0"/><stop offset="1" stop-opacity="0"/></linearGradient><linearGradient id="a"><stop offset="0"/><stop offset="1" stop-opacity="0"/></linearGradient><linearGradient id="b"><stop offset="0" stop-color="#515151"/><stop offset=".2" stop-color="#2b2b2b"/><stop offset=".53" stop-color="#1b1b1b"/><stop offset="1"/></linearGradient><linearGradient xlink:href="#c" id="f" gradientUnits="userSpaceOnUse" x1="2.4" y1=".83" x2="13.95" y2="8.98"/><linearGradient xlink:href="#d" id="e" x1="6.33" y1="6.87" x2="11.69" y2="6.35" gradientUnits="userSpaceOnUse"/></defs><path d="M6.35.1C4.81.1 3.57.39 2.66.97A3.67 3.67 0 0 0 1 4.22c0 1.91 1.54 4.47 2.01 5.2.54.85 1.13 1.61 1.65 2.16.68.7 1.21 1.03 1.69 1.03s1.01-.33 1.69-1.03a15.2 15.2 0 0 0 1.65-2.15c.47-.74 2-3.3 2-5.21 0-1.42-.57-2.54-1.65-3.25A6.75 6.75 0 0 0 6.35.09z" fill="url(#e)"/><path d="M7.08 12.37l.04-.01c.28-.17.58-.43.92-.78a15.2 15.2 0 0 0 1.65-2.15c.23-.37.73-1.2 1.18-2.17.22-.48.42-1 .57-1.52.15-.52.25-1.04.25-1.52 0-.09-.02-.16-.03-.25l-1.63-1.63-1.82 1.24-1.43-1.43-.92 2.14-2-2 .33 3.36 1.77 1.83.08.77-.77-.78-.31.13-.12.43-.48-.47-.32.06-.39-.06v.34l.2.23.35.37-.31.4-.37-.1z" opacity=".51" fill="url(#f)"/><path d="M6.1 6.55h.47s.13-.02.2-.1c.07-.07.07-.2.07-.2s-.01-.65.28-.74c.28-.1.64.62 1.03.9.29.2.51.16.51.16l1.03-.02s.54-.03.28-.47c-.02-.04-.14-.33-.76-.92-.65-.62-.56-.52.22-1.6.47-.65.66-1.05.6-1.22-.06-.16-.4-.12-.4-.12H8.47s-.09 0-.15.04c-.07.03-.1.13-.1.13s-.19.5-.43.93c-.52.91-.73.96-.81.9-.2-.13-.15-.53-.15-.8 0-.89.13-1.26-.25-1.35a1.92 1.92 0 0 0-.54-.06c-.41 0-.76 0-.96.1-.14.07-.24.22-.17.23.07.01.25.05.34.18.12.17.11.54.11.54s.07 1.04-.16 1.17c-.15.09-.37-.1-.83-.92-.23-.42-.41-.89-.41-.89s-.04-.08-.1-.13c-.07-.06-.18-.08-.18-.08l-1.1.01s-.16 0-.22.08c-.06.07 0 .2 0 .2s.85 2.1 1.83 3.15c.9.96 1.91.9 1.91.9" fill="#fff" fill-rule="evenodd"/><g fill="#fff" stroke-width="2.21"><path d="M4.37 8.49q0 .09-.03.17-.04.07-.1.12-.06.06-.15.08-.09.03-.2.03l-.2-.02q-.1-.02-.17-.06v-.28l.1.05.09.03.1.03H3.97l.06-.03.03-.05.01-.06q0-.04-.02-.07-.01-.03-.04-.05l-.08-.06-.1-.05-.09-.05-.1-.08q-.05-.05-.08-.12-.03-.07-.03-.16 0-.1.03-.17t.08-.13q.06-.05.14-.07.08-.03.19-.03h.1l.09.03q.05 0 .1.03l.1.04-.1.23-.08-.04-.07-.02-.07-.02h-.07q-.08 0-.12.04-.04.04-.04.1 0 .04.02.06 0 .03.03.05l.07.05.1.06.13.08q.06.04.1.09.05.04.07.1.03.06.03.15zM5.42 8.87l-.1-.33h-.47l-.1.33h-.3l.45-1.4h.37l.45 1.4h-.3zm-.16-.58l-.1-.3v-.06l-.03-.08-.03-.1-.01-.08-.01.05-.02.06-.01.07-.02.06-.01.05-.01.03-.1.3h.35zM6.56 7.48h.3l-.44 1.4H6.1l-.43-1.4h.3l.23.84.01.05.02.09.02.09.01.08.01-.08.02-.1.02-.08.02-.05.23-.84zM7.83 8.87h-.8V7.48h.8v.24h-.5v.3h.47v.25h-.47v.36h.5v.24zM8.42 8.1h.08q.12 0 .18-.05.05-.05.05-.14 0-.1-.06-.15-.05-.04-.17-.04h-.08v.38zm0 .24v.53h-.3V7.48h.39q.27 0 .4.1.12.1.12.32 0 .07-.02.13l-.05.1q-.03.05-.07.08l-.09.06.19.3.07.11.06.1.04.07.02.02h-.33l-.3-.53h-.13z"/></g><path d="M6.35.1C4.81.1 3.57.39 2.66.97A3.67 3.67 0 0 0 1 4.22c0 1.91 1.54 4.47 2.01 5.2.54.85 1.13 1.61 1.65 2.16.68.7 1.21 1.03 1.69 1.03s1.01-.33 1.69-1.03a15.2 15.2 0 0 0 1.65-2.15c.47-.74 2-3.3 2-5.21 0-1.42-.57-2.54-1.65-3.25A6.75 6.75 0 0 0 6.35.09zm0 .03C6.91.15 7.44.2 7.9.31a5.82 5.82 0 0 1 1.6.66 3.65 3.65 0 0 1 1.24 1.36c.14.27.25.57.32.88a4.61 4.61 0 0 1-.14 2.53c-.15.52-.36 1.04-.58 1.52-.44.97-.95 1.8-1.18 2.17a15.2 15.2 0 0 1-1.65 2.15 4.9 4.9 0 0 1-.92.78.96.96 0 0 1-.24.1.96.96 0 0 1-.24-.1 4.76 4.76 0 0 1-.92-.78 14.41 14.41 0 0 1-1.65-2.15 19.2 19.2 0 0 1-1.18-2.17c-.22-.48-.43-1-.58-1.52a4.6 4.6 0 0 1-.14-2.52 3.73 3.73 0 0 1 .84-1.64 3.65 3.65 0 0 1 1.45-1A6.83 6.83 0 0 1 6.35.13z" opacity=".2"/></svg>

<?xml version="1.0" encoding="UTF-8" standalone="no"?>
<svg
   xmlns:dc="http://purl.org/dc/elements/1.1/"
   xmlns:cc="http://creativecommons.org/ns#"
   xmlns:rdf="http://www.w3.org/1999/02/22-rdf-syntax-ns#"
   xmlns:svg="http://www.w3.org/2000/svg"
   xmlns="http://www.w3.org/2000/svg"
   xmlns:xlink="http://www.w3.org/1999/xlink"
   xmlns:sodipodi="http://sodipodi.sourceforge.net/DTD/sodipodi-0.dtd"
   xmlns:inkscape="http://www.inkscape.org/namespaces/inkscape"
   width="48"
   height="48"
   viewBox="0 0 12.7 12.7"
   version="1.1"
   id="svg44"
   sodipodi:docname="vkaudiosaver.svg"
   inkscape:version="0.92.4 (5da689c313, 2019-01-14)">
  <sodipodi:namedview
     pagecolor="#ffffff"
     bordercolor="#666666"
     borderopacity="1"
     objecttolerance="10"
     gridtolerance="10"
     guidetolerance="10"
     inkscape:pageopacity="0"
     inkscape:pageshadow="2"
     inkscape:window-width="1112"
     inkscape:window-height="480"
     id="namedview46"
     showgrid="false"
     inkscape:zoom="4.9166667"
     inkscape:cx="2.1355932"
     inkscape:cy="24"
     inkscape:window-x="0"
     inkscape:window-y="25"
     inkscape:window-maximized="0"
     inkscape:current-layer="svg44" />
  <metadata
     id="metadata2">
    <rdf:RDF>
      <cc:Work>
        <dc:format>image/svg+xml</dc:format>
        <dc:type
           rdf:resource="http://purl.org/dc/dcmitype/StillImage" />
        <dc:title></dc:title>
      </cc:Work>
    </rdf:RDF>
  </metadata>
  <defs
     id="defs30">
    <linearGradient
       id="d">
      <stop
         offset="0"
         stop-color="#80b3ff"
         id="stop4" />
      <stop
         offset="1"
         stop-color="#507299"
         id="stop6" />
    </linearGradient>
    <linearGradient
       id="c">
      <stop
         offset="0"
         id="stop9" />
      <stop
         offset="1"
         stop-opacity="0"
         id="stop11" />
    </linearGradient>
    <linearGradient
       id="a">
      <stop
         offset="0"
         id="stop14" />
      <stop
         offset="1"
         stop-opacity="0"
         id="stop16" />
    </linearGradient>
    <linearGradient
       id="b">
      <stop
         offset="0"
         stop-color="#515151"
         id="stop19" />
      <stop
         offset=".2"
         stop-color="#2b2b2b"
         id="stop21" />
      <stop
         offset=".53"
         stop-color="#1b1b1b"
         id="stop23" />
      <stop
         offset="1"
         id="stop25" />
    </linearGradient>
    <linearGradient
       xlink:href="#c"
       id="f"
       gradientUnits="userSpaceOnUse"
       x1="2.4"
       y1=".83"
       x2="13.95"
       y2="8.98" />
    <linearGradient
       xlink:href="#d"
       id="e"
       x1="6.33"
       y1="6.87"
       x2="11.69"
       y2="6.35"
       gradientUnits="userSpaceOnUse" />
  </defs>
  <path
     d="M 6.35,0.1 C 4.81,0.1 3.57,0.39 2.66,0.97 A 3.67,3.67 0 0 0 1,4.22 c 0,1.91 1.54,4.47 2.01,5.2 0.54,0.85 1.13,1.61 1.65,2.16 0.68,0.7 1.21,1.03 1.69,1.03 0.48,0 1.01,-0.33 1.69,-1.03 A 15.2,15.2 0 0 0 9.69,9.43 c 0.47,-0.74 2,-3.3 2,-5.21 0,-1.42 -0.57,-2.54 -1.65,-3.25 A 6.75,6.75 0 0 0 6.35,0.09 Z"
     id="path32"
     style="fill:url(#e)"
     inkscape:connector-curvature="0" />
  <path
     d="M 7.08,12.37 7.12,12.36 C 7.4,12.19 7.7,11.93 8.04,11.58 A 15.2,15.2 0 0 0 9.69,9.43 c 0.23,-0.37 0.73,-1.2 1.18,-2.17 0.22,-0.48 0.42,-1 0.57,-1.52 0.15,-0.52 0.25,-1.04 0.25,-1.52 0,-0.09 -0.02,-0.16 -0.03,-0.25 L 10.03,2.34 8.21,3.58 6.78,2.15 5.86,4.29 3.86,2.29 4.19,5.65 5.96,7.48 6.04,8.25 5.27,7.47 4.96,7.6 4.84,8.03 4.36,7.56 4.04,7.62 3.65,7.56 V 7.9 L 3.85,8.13 4.2,8.5 3.89,8.9 3.52,8.8 Z"
     id="path34"
     style="opacity:0.51000001;fill:url(#f)"
     inkscape:connector-curvature="0" />
  <path
     d="m 6.1,6.55 h 0.47 c 0,0 0.13,-0.02 0.2,-0.1 0.07,-0.07 0.07,-0.2 0.07,-0.2 0,0 -0.01,-0.65 0.28,-0.74 0.28,-0.1 0.64,0.62 1.03,0.9 0.29,0.2 0.51,0.16 0.51,0.16 L 9.69,6.55 c 0,0 0.54,-0.03 0.28,-0.47 C 9.95,6.04 9.83,5.75 9.21,5.16 8.56,4.54 8.65,4.64 9.43,3.56 9.9,2.91 10.09,2.51 10.03,2.34 9.97,2.18 9.63,2.22 9.63,2.22 H 8.47 c 0,0 -0.09,0 -0.15,0.04 -0.07,0.03 -0.1,0.13 -0.1,0.13 0,0 -0.19,0.5 -0.43,0.93 C 7.27,4.23 7.06,4.28 6.98,4.22 6.78,4.09 6.83,3.69 6.83,3.42 6.83,2.53 6.96,2.16 6.58,2.07 A 1.92,1.92 0 0 0 6.04,2.01 c -0.41,0 -0.76,0 -0.96,0.1 C 4.94,2.18 4.84,2.33 4.91,2.34 4.98,2.35 5.16,2.39 5.25,2.52 5.37,2.69 5.36,3.06 5.36,3.06 5.36,3.06 5.43,4.1 5.2,4.23 5.05,4.32 4.83,4.13 4.37,3.31 4.14,2.89 3.96,2.42 3.96,2.42 3.96,2.42 3.92,2.34 3.86,2.29 3.79,2.23 3.68,2.21 3.68,2.21 l -1.1,0.01 c 0,0 -0.16,0 -0.22,0.08 -0.06,0.07 0,0.2 0,0.2 0,0 0.85,2.1 1.83,3.15 0.9,0.96 1.91,0.9 1.91,0.9"
     id="path36"
     inkscape:connector-curvature="0"
     style="fill:#ffffff;fill-rule:evenodd" />
  <g
     id="g40"
     style="fill:#ffffff;stroke-width:2.21000004">
    <path
       d="M 4.37,8.49 Q 4.37,8.58 4.34,8.66 4.3,8.73 4.24,8.78 4.18,8.84 4.09,8.86 4,8.89 3.89,8.89 L 3.69,8.87 Q 3.59,8.85 3.52,8.81 V 8.53 l 0.1,0.05 0.09,0.03 0.1,0.03 H 3.97 L 4.03,8.61 4.06,8.56 4.07,8.5 Q 4.07,8.46 4.05,8.43 4.04,8.4 4.01,8.38 L 3.93,8.32 3.83,8.27 3.74,8.22 3.64,8.14 Q 3.59,8.09 3.56,8.02 3.53,7.95 3.53,7.86 3.53,7.76 3.56,7.69 3.59,7.62 3.64,7.56 3.7,7.51 3.78,7.49 3.86,7.46 3.97,7.46 h 0.1 l 0.09,0.03 q 0.05,0 0.1,0.03 L 4.36,7.56 4.26,7.79 4.18,7.75 4.11,7.73 4.04,7.71 H 3.97 q -0.08,0 -0.12,0.04 -0.04,0.04 -0.04,0.1 0,0.04 0.02,0.06 0,0.03 0.03,0.05 l 0.07,0.05 0.1,0.06 0.13,0.08 q 0.06,0.04 0.1,0.09 0.05,0.04 0.07,0.1 0.03,0.06 0.03,0.15 z M 5.42,8.87 5.32,8.54 H 4.85 L 4.75,8.87 H 4.45 L 4.9,7.47 h 0.37 l 0.45,1.4 z M 5.26,8.29 5.16,7.99 V 7.93 L 5.13,7.85 5.1,7.75 5.09,7.67 5.08,7.72 5.06,7.78 5.05,7.85 5.03,7.91 5.02,7.96 5.01,7.99 4.91,8.29 Z m 1.3,-0.81 h 0.3 L 6.42,8.88 H 6.1 L 5.67,7.48 h 0.3 L 6.2,8.32 6.21,8.37 6.23,8.46 6.25,8.55 6.26,8.63 6.27,8.55 6.29,8.45 6.31,8.37 6.33,8.32 Z M 7.83,8.87 H 7.03 V 7.48 h 0.8 v 0.24 h -0.5 v 0.3 H 7.8 V 8.27 H 7.33 v 0.36 h 0.5 z M 8.42,8.1 H 8.5 Q 8.62,8.1 8.68,8.05 8.73,8 8.73,7.91 8.73,7.81 8.67,7.76 8.62,7.72 8.5,7.72 H 8.42 Z m 0,0.24 V 8.87 H 8.12 V 7.48 h 0.39 q 0.27,0 0.4,0.1 0.12,0.1 0.12,0.32 0,0.07 -0.02,0.13 L 8.96,8.13 Q 8.93,8.18 8.89,8.21 L 8.8,8.27 8.99,8.57 9.06,8.68 9.12,8.78 9.16,8.85 9.18,8.87 H 8.85 L 8.55,8.34 Z"
       id="path38"
       inkscape:connector-curvature="0" />
  </g>
  <path
     d="M 6.35,0.1 C 4.81,0.1 3.57,0.39 2.66,0.97 A 3.67,3.67 0 0 0 1,4.22 c 0,1.91 1.54,4.47 2.01,5.2 0.54,0.85 1.13,1.61 1.65,2.16 0.68,0.7 1.21,1.03 1.69,1.03 0.48,0 1.01,-0.33 1.69,-1.03 A 15.2,15.2 0 0 0 9.69,9.43 c 0.47,-0.74 2,-3.3 2,-5.21 0,-1.42 -0.57,-2.54 -1.65,-3.25 A 6.75,6.75 0 0 0 6.35,0.09 Z m 0,0.03 C 6.91,0.15 7.44,0.2 7.9,0.31 a 5.82,5.82 0 0 1 1.6,0.66 3.65,3.65 0 0 1 1.24,1.36 c 0.14,0.27 0.25,0.57 0.32,0.88 A 4.61,4.61 0 0 1 10.92,5.74 C 10.77,6.26 10.56,6.78 10.34,7.26 9.9,8.23 9.39,9.06 9.16,9.43 A 15.2,15.2 0 0 1 7.51,11.58 4.9,4.9 0 0 1 6.59,12.36 0.96,0.96 0 0 1 6.35,12.46 0.96,0.96 0 0 1 6.11,12.36 4.76,4.76 0 0 1 5.19,11.58 14.41,14.41 0 0 1 3.54,9.43 19.2,19.2 0 0 1 2.36,7.26 C 2.14,6.78 1.93,6.26 1.78,5.74 A 4.6,4.6 0 0 1 1.64,3.22 3.73,3.73 0 0 1 2.48,1.58 3.65,3.65 0 0 1 3.93,0.58 6.83,6.83 0 0 1 6.35,0.13 Z"
     id="path42"
     inkscape:connector-curvature="0"
     style="opacity:0.2" />
</svg>
